X: 1
T: Nudeli
C: Zwiefacher (PP WW)
C: transcribed by T. Traub 7-23-07 (source?)
M: 4/4
L: 1/4
R: reel
K: C
G|: "C"c G "G"d G|"C"G/e/ e d|"F"c B/A/ "G"G|"C"c G "G"d G|"C"G/e/ e/c/ "G"d/B/| [1 "C"c2 (3G/A/B/ :| [2 "C"c2 c/d/ ||
"C"e c "F"f d|"G"g g/a/ g/f/|d d/B/ G|"C"e c "F"f d|"G"g g/a/g/e/| [1 "C"c2 c/d :| [2 "C"c2 (3G/A/B/ |]
